X: 12
T: No_107_Closing_Song_of_Dance.krn
N: Derived from No_107_Closing_Song_of_Dance.krn
%%abc-version 2.0
%%abcx-abcm2ps-target-version 5.9.1 (29 Sep 2008)
%%abc-creator hum2abc beta
%%abcx-conversion-date 2019/03/15 08:35:44
%%humdrum-veritas 2764635741
%%humdrum-veritas-data 674293983
%%linebreak <none>
%%barnumbers 0
L: 1/16
M: 3/4
K: D clef=bass
[K:clef=bass][M:3/4]z4z2 z B, B,3B, | 
D3A, A,3A, A,3A, ]|:  
F,3D, D,2 z B, B,3B, | 
B,3A, A,3A, A,3A, ||  
[M:2/4]F,3D, D,3D, | 
B,,3A,, A,,2 z D, ||  
[M:3/4]D,3B,, B,,3A,, A,,2A,,2 ||  
[M:2/4]A,,8 | 
A,,2 z A, A,3A, | 
B,3A, A,3F, | 
E,4D,4 | 
B,,3A,, A,,2 z D, ||  
[M:3/4]D,3B,, B,,3A,, A,,2A,,2 ||  
[M:2/4]A,,8 ||  
[M:3/4]A,,4z4z3 B, | 
B,3B, B,3A, A,3A, :|]  
[M:2/4]A,,8 |]  



